svg/u1f9c9.svg

<svg viewBox="0 0 128 128" xmlns="http://www.w3.org/2000/svg">
  <path d="M33.36,53.21c0,0-11.91,14.74-11.34,30.99s9.83,38.74,42.52,39.49c32.69,0.76,45.2-27.3,40.63-46.86 c-4.64-19.87-14.74-26.27-14.74-26.27L33.36,53.21z" fill="#865C52"/>
  <path d="M32.58,54.3c0,0,0.08-1.69,0.73-3.74c0.59-1.88,1.7-3.77,1.7-3.77S50.62,57.29,51.23,57.6 s18.46,3.79,19.79,3.18c1.33-0.62,16-8.51,17.13-8.92c1.13-0.41,2.67-5.64,2.67-5.64s1.67,2.06,2.44,4.89 c0.45,1.64,0.43,3.56,0.43,3.56s0.66,5.84-10.77,12.99c-11.49,7.18-31.94,5.58-41.84-1.64C33.49,60.47,32.58,54.3,32.58,54.3z" fill="#B0B0B0"/>
  <path d="M63.33,33.19c-14.97-0.17-28.59,6.28-28.79,16.23c-0.18,8.51,15.24,15.79,27.87,15.87 c16.92,0.1,29.12-7.97,29.12-15.69C91.53,41.81,81.48,33.4,63.33,33.19z" fill="#E0E0E0"/>
  <path d="M78.86,42.12c0,0-4.21-4.85-16.35-4.94c-11.41-0.09-18.85,4.04-18.68,10.24 c0.18,6.92,9.14,7.87,9.14,7.87l23.11-3.55L78.86,42.12z" fill="#858585"/>
  <path d="M75.09,47.24c0,0-3.41-2.96-13.03-2.96s-14.91,3.23-15.36,6.47c-0.26,1.87,0.27,2.34,0.27,2.34 s5.39,4.13,16.53,3.95s12.76-2.16,12.76-2.16L75.09,47.24z" fill="#96A520"/>
  <path d="M69.52,57.66c0,0,15-28.93,16.35-30.36s23.98-25.51,23.98-25.51l3.41,3.05l-6.74,7.46 c0,0-16.71,18.51-16.98,19.31c-0.27,0.81-9.07,18.77-9.43,19.4c-0.36,0.63-1.98,6.92-2.34,7.01C77.42,58.11,69.52,57.66,69.52,57.66 z" fill="#E0E0E0"/>
  <path d="M75.72,55.23c0,0,12.4-24.07,13.12-25.24c0.72-1.17,23.8-25.73,23.8-25.73l1.7,1.51 c0,0-22.32,24.83-22.98,25.74C90.42,32.8,80.06,53.1,80.06,53.1s-1.02,0.73-1.79,1.13C76.87,54.95,75.72,55.23,75.72,55.23z" fill="#B0B0B0"/>
  <path d="M94.4,16.61c-0.45-0.1-3.68,3.23-3.5,3.77c0.18,0.54,5.2,5.28,6.01,5.55s3.5-3.14,3.59-3.5 C100.59,22.07,95.21,16.79,94.4,16.61z" fill="#B0B0B0"/>
  <path d="M94.22,18.13c-1.09,0-1.5,0.94-1.53,1.89c-0.03,1.08,0.45,1.89,1.53,1.89s1.53-1.08,1.53-1.98 S95.21,18.13,94.22,18.13z" fill="#FFFFFF"/>
  <path d="M32.71,65.91c-1.36-0.11-5.63,6.76-5.85,14.49c-0.23,7.73,1.76,13.41,3.18,13.58 c1.88,0.23,2.96-6.02,5.4-10.91c2.42-4.85,6.42-8.07,6.36-9.55c-0.06-1.48-3.07-2.73-5-4.32C34.87,67.62,33.58,65.99,32.71,65.91z" fill="#B78859"/>
</svg>

<svg viewBox="0 0 128 128" xmlns="http://www.w3.org/2000/svg">
  <defs/>
  <path d="M33.36,53.21 C33.36,53.21 21.45,67.95 22.02,84.2 C22.59,100.45 31.85,122.94 64.54,123.69 C97.23,124.45 109.74,96.39 105.17,76.83 C100.53,56.96 90.43,50.56 90.43,50.56 L33.36,53.21 Z" fill="#865C52"/>
  <path d="M32.58,54.3 C32.58,54.3 32.66,52.61 33.31,50.56 C33.9,48.68 35.01,46.79 35.01,46.79 C35.01,46.79 50.62,57.29 51.23,57.6 C51.84,57.91 69.69,61.39 71.02,60.78 C72.35,60.16 87.02,52.27 88.15,51.86 C89.28,51.45 90.82,46.22 90.82,46.22 C90.82,46.22 92.49,48.28 93.26,51.11 C93.71,52.75 93.69,54.67 93.69,54.67 C93.69,54.67 94.35,60.51 82.92,67.66 C71.43,74.84 50.98,73.24 41.08,66.02 C33.49,60.47 32.58,54.3 32.58,54.3 Z" fill="#B0B0B0"/>
  <path d="M63.33,33.19 C48.36,33.02 34.74,39.47 34.54,49.42 C34.36,57.93 49.78,65.21 62.41,65.29 C79.33,65.39 91.53,57.32 91.53,49.6 C91.53,41.81 81.48,33.4 63.33,33.19 Z" fill="#E0E0E0"/>
  <path d="M78.86,42.12 C78.86,42.12 74.65,37.27 62.51,37.18 C51.1,37.09 43.66,41.22 43.83,47.42 C44.01,54.34 52.97,55.29 52.97,55.29 L76.08,51.74 L78.86,42.12 Z" fill="#858585"/>
  <path d="M75.09,47.24 C75.09,47.24 71.68,44.28 62.06,44.28 C52.44,44.28 47.15,47.51 46.7,50.75 C46.44,52.62 46.97,53.09 46.97,53.09 C46.97,53.09 52.36,57.22 63.5,57.04 C74.64,56.86 76.26,54.88 76.26,54.88 L75.09,47.24 Z" fill="#96A520"/>
  <path d="M69.52,57.66 C69.52,57.66 84.52,28.73 85.87,27.3 C87.22,25.87 109.85,1.79 109.85,1.79 L113.26,4.84 L106.52,12.3 C106.52,12.3 89.81,30.81 89.54,31.61 C89.27,32.42 80.47,50.38 80.11,51.01 C79.75,51.64 78.13,57.93 77.77,58.02 C77.42,58.11 69.52,57.66 69.52,57.66 Z" fill="#E0E0E0"/>
  <path d="M75.72,55.23 C75.72,55.23 88.12,31.16 88.84,29.99 C89.56,28.82 112.64,4.26 112.64,4.26 L114.34,5.77 C114.34,5.77 92.02,30.6 91.36,31.51 C90.42,32.8 80.06,53.1 80.06,53.1 C80.06,53.1 79.04,53.83 78.27,54.23 C76.87,54.95 75.72,55.23 75.72,55.23 Z" fill="#B0B0B0"/>
  <path d="M94.4,16.61 C93.95,16.51 90.72,19.84 90.9,20.38 C91.08,20.92 96.1,25.66 96.91,25.93 C97.72,26.2 100.41,22.79 100.5,22.43 C100.59,22.07 95.21,16.79 94.4,16.61 Z" fill="#B0B0B0"/>
  <path d="M94.22,18.13 C93.13,18.13 92.72,19.07 92.69,20.02 C92.66,21.1 93.14,21.91 94.22,21.91 C95.3,21.91 95.75,20.83 95.75,19.93 C95.75,19.03 95.21,18.13 94.22,18.13 Z" fill="#FFFFFF"/>
  <path d="M32.71,65.91 C31.35,65.8 27.08,72.67 26.86,80.4 C26.63,88.13 28.62,93.81 30.04,93.98 C31.92,94.21 33,87.96 35.44,83.07 C37.86,78.22 41.86,75 41.8,73.52 C41.74,72.04 38.73,70.79 36.8,69.2 C34.87,67.62 33.58,65.99 32.71,65.91 Z" fill="#B78859"/>
</svg>
